azure-docs/api_custom_decision_service.svg

<?xml version="1.0" encoding="UTF-8"?>
<svg width="512px" height="512px" viewBox="0 0 512 512" version="1.1" xmlns="http://www.w3.org/2000/svg" xmlns:xlink="http://www.w3.org/1999/xlink">
    <!-- Generator: Sketch 46.2 (44496) - http://www.bohemiancoding.com/sketch -->
    <title>customDecisionService-wht-bluBG-512p</title>
    <desc>Created with Sketch.</desc>
    <defs></defs>
    <g id="PRODUCTION-ICONS" stroke="none" stroke-width="1" fill="none" fill-rule="evenodd">
        <g id="customDecisionService-wht-bluBG-512p">
            <g id="Custom-Decision-Service">
                <rect id="Rectangle-3-Copy-20" fill="#0063B1" x="0" y="0" width="512" height="512"></rect>
                <path d="M177.171911,273.068942 L96.7139556,335.64672 L177.171911,398.224498 L386.847289,398.224498 L386.847289,273.068942 L177.171911,273.068942 Z M133.777067,335.64672 L184.977067,295.824498 L364.086044,295.824498 L364.086044,375.468942 L184.977067,375.468942 L133.777067,335.64672 Z" id="Fill-1" fill="#FFFFFF"></path>
                <path d="M125.157831,113.775502 L125.157831,238.936747 L337.762987,238.936747 L418.220942,176.358969 L337.762987,113.775502 L125.157831,113.775502 Z M147.913387,136.531058 L329.957831,136.531058 L381.157831,176.358969 L329.957831,216.175502 L147.913387,216.175502 L147.913387,136.531058 Z" id="Fill-2" fill="#FFFFFF"></path>
            </g>
        </g>
    </g>
</svg>

<svg width="512" height="512" xmlns="http://www.w3.org/2000/svg"><g fill="none" fill-rule="evenodd"><path fill="#0063B1" d="M0 0h512v512H0z"/><path d="M177.172 273.069l-80.458 62.578 80.458 62.577h209.675V273.07H177.172zm-43.395 62.578l51.2-39.823h179.109v79.645H184.977l-51.2-39.822zM125.158 113.776v125.16h212.605l80.458-62.577-80.458-62.583H125.158zm22.755 22.755h182.045l51.2 39.828-51.2 39.817H147.913V136.53z" fill="#FFF"/></g></svg>
